public/2024-summer/birds_pc.svg

<svg width="1440" height="2598" viewBox="0 0 1440 2598" fill="none" xmlns="http://www.w3.org/2000/svg">
<path d="M1030.09 638.3C1029.84 648.35 1025.11 654.69 1015.95 657.07C1010.68 658.44 1005.95 660.3 1002.16 664.45C998.99 667.93 994.3 668.57 989.97 669.7C988.25 670.15 986.48 669.91 985.78 668.01C985.11 666.22 986.93 665.92 987.94 665.21C989.29 664.27 991.31 663.49 990.92 661.64C990.54 659.85 988.39 660.55 987.01 660.29C975.01 657.99 963.45 643.78 963.91 631.8C963.96 630.52 963.68 628.84 965.35 628.48C966.7 628.19 967.28 629.61 967.78 630.62C971.05 637.26 976.8 641.07 983.14 644.27C987.74 646.58 992.33 648.93 996.43 652.11C999.35 654.37 1002.47 653.48 1005.36 652.21C1014.07 648.38 1022.86 644.57 1026.81 634.82C1027.12 634.04 1027.74 633.27 1028.67 633.48C1029.57 633.68 1029.82 634.61 1029.9 635.46C1030.01 636.62 1030.04 637.78 1030.07 638.3H1030.09Z" fill="#F9BB2E"/>
<path d="M142.09 1876.3C141.84 1886.35 137.11 1892.69 127.95 1895.07C122.68 1896.44 117.95 1898.3 114.16 1902.45C110.99 1905.93 106.3 1906.57 101.97 1907.7C100.25 1908.15 98.48 1907.91 97.78 1906.01C97.11 1904.22 98.93 1903.92 99.94 1903.21C101.29 1902.27 103.31 1901.49 102.92 1899.64C102.54 1897.85 100.39 1898.55 99.01 1898.29C87.01 1895.99 75.45 1881.78 75.91 1869.8C75.96 1868.52 75.68 1866.84 77.35 1866.48C78.7 1866.19 79.28 1867.61 79.78 1868.62C83.05 1875.26 88.8 1879.07 95.14 1882.27C99.74 1884.58 104.33 1886.93 108.43 1890.11C111.35 1892.37 114.47 1891.48 117.36 1890.21C126.07 1886.38 134.86 1882.57 138.81 1872.82C139.12 1872.04 139.74 1871.27 140.67 1871.48C141.57 1871.68 141.82 1872.61 141.9 1873.46C142.01 1874.62 142.04 1875.78 142.07 1876.3H142.09Z" fill="#F9BB2E"/>
<path d="M261.12 511.5C256.7 511.13 251.45 512.38 246.13 512.52C244.86 512.55 243.12 512.9 242.72 511.26C242.35 509.73 243.85 508.94 245.02 508.37C255.64 503.24 266.7 499.89 278.67 500.49C281.66 500.64 284.01 502 285.84 504.45C288.03 507.37 290.37 510.19 292.71 513C295.16 515.95 298.19 516.56 302.11 517.15C308.23 518.08 313.66 522.25 319.95 523.71C320.95 523.94 321.63 526.07 322.23 527.43C325 533.66 327.43 540.05 331.26 545.76C331.95 546.79 333.09 548.19 331.68 549.29C330.4 550.29 329.14 549.11 328.16 548.28C324.35 545.04 320.93 541.4 317.74 537.55C312.12 530.75 307.3 529.48 298.84 532.31C293.42 534.12 287.74 534.34 282.08 534.56C279.69 534.65 277.98 533.48 276.58 531.67C274.51 528.99 274.9 527.12 278.31 526.19C278.63 526.1 278.95 526.01 279.28 525.93C282.01 525.32 285.86 525.37 286.48 522.43C287.17 519.15 283.32 517.78 281 516.1C275.38 512.04 272.11 511.36 261.13 511.5H261.12Z" fill="#F9BB2E"/>
<path d="M920.12 1985.5C915.7 1985.13 910.45 1986.38 905.13 1986.52C903.86 1986.55 902.12 1986.9 901.72 1985.26C901.35 1983.73 902.85 1982.94 904.02 1982.37C914.64 1977.24 925.7 1973.89 937.67 1974.49C940.66 1974.64 943.01 1976 944.84 1978.45C947.03 1981.37 949.37 1984.19 951.71 1987C954.16 1989.95 957.19 1990.56 961.11 1991.15C967.23 1992.08 972.66 1996.25 978.95 1997.71C979.95 1997.94 980.63 2000.07 981.23 2001.43C984 2007.66 986.43 2014.05 990.26 2019.76C990.95 2020.79 992.09 2022.19 990.68 2023.29C989.4 2024.29 988.14 2023.11 987.16 2022.28C983.35 2019.04 979.93 2015.4 976.74 2011.55C971.12 2004.75 966.3 2003.48 957.84 2006.31C952.42 2008.12 946.74 2008.34 941.08 2008.56C938.69 2008.65 936.98 2007.48 935.58 2005.67C933.51 2002.99 933.9 2001.12 937.31 2000.19C937.63 2000.1 937.95 2000.01 938.28 1999.93C941.01 1999.32 944.86 1999.37 945.48 1996.43C946.17 1993.15 942.32 1991.78 940 1990.1C934.38 1986.04 931.11 1985.36 920.13 1985.5H920.12Z" fill="#F9BB2E"/>
</svg>

<svg xmlns="http://www.w3.org/2000/svg" width="1440" height="2598" fill="none"><path fill="#F9BB2E" d="M1030 638.3c-.2 10-4.9 16.4-14 18.8-5.3 1.3-10 3.2-13.8 7.4-3.2 3.4-7.9 4-12.2 5.2-1.8.4-3.5.2-4.2-1.7-.7-1.8 1.1-2 2.1-2.8 1.4-1 3.4-1.7 3-3.6-.4-1.8-2.5-1-3.9-1.3-12-2.3-23.5-16.5-23-28.5 0-1.3-.3-3 1.4-3.3 1.3-.3 1.9 1.1 2.4 2.1 3.3 6.7 9 10.5 15.3 13.7 4.6 2.3 9.2 4.6 13.3 7.8 3 2.3 6 1.4 9 .1 8.7-3.8 17.5-7.6 21.4-17.4.3-.8 1-1.5 1.9-1.3.9.2 1.1 1.1 1.2 2l.2 2.8ZM142 1876.3c-.2 10-4.9 16.4-14 18.8-5.3 1.3-10 3.2-13.8 7.4-3.2 3.4-7.9 4-12.2 5.2-1.8.5-3.5.2-4.2-1.7-.7-1.8 1.1-2 2.1-2.8 1.4-1 3.4-1.7 3-3.6-.4-1.8-2.5-1-3.9-1.3-12-2.3-23.5-16.5-23-28.5 0-1.3-.3-3 1.3-3.3 1.4-.3 2 1.1 2.5 2.1 3.3 6.7 9 10.5 15.3 13.7 4.6 2.3 9.2 4.6 13.3 7.8 3 2.3 6 1.4 9 .1 8.7-3.8 17.5-7.6 21.4-17.4.3-.8 1-1.5 1.9-1.3.9.2 1.1 1.1 1.2 2l.2 2.8ZM261.1 511.5c-4.4-.4-9.7.9-15 1-1.2 0-3 .4-3.4-1.2-.3-1.6 1.2-2.4 2.3-3a68.7 68.7 0 0 1 33.7-7.8c3 .1 5.3 1.5 7.1 4 2.2 2.9 4.6 5.7 7 8.5 2.4 3 5.4 3.6 9.3 4.1 6.1 1 11.6 5.1 17.8 6.6 1 .2 1.7 2.4 2.3 3.7 2.8 6.3 5.2 12.6 9 18.4.8 1 1.9 2.4.5 3.5-1.3 1-2.6-.2-3.5-1a85.9 85.9 0 0 1-10.5-10.8c-5.6-6.8-10.4-8-18.9-5.2-5.4 1.8-11 2-16.7 2.3-2.4 0-4.1-1.1-5.5-3-2-2.6-1.7-4.5 1.7-5.4l1-.3c2.7-.6 6.6-.5 7.2-3.5.7-3.3-3.2-4.6-5.5-6.3-5.6-4-8.9-4.7-19.9-4.6ZM920.1 1985.5c-4.4-.4-9.6.9-15 1-1.2 0-3 .4-3.4-1.2-.4-1.6 1.1-2.4 2.3-3a68.7 68.7 0 0 1 33.7-7.8c3 .1 5.3 1.5 7.1 4 2.2 2.9 4.6 5.7 7 8.5 2.4 3 5.4 3.6 9.3 4.2 6.1.9 11.6 5 17.9 6.5 1 .2 1.6 2.4 2.2 3.7 2.8 6.3 5.2 12.6 9 18.4.8 1 1.9 2.4.5 3.5-1.3 1-2.6-.2-3.5-1a85.9 85.9 0 0 1-10.5-10.8c-5.6-6.8-10.4-8-18.9-5.2-5.4 1.8-11 2-16.7 2.3-2.4 0-4.1-1.1-5.5-3-2-2.6-1.7-4.5 1.7-5.4l1-.3c2.7-.6 6.6-.5 7.2-3.5.7-3.3-3.2-4.6-5.5-6.3-5.6-4-8.9-4.7-19.9-4.6Z"/></svg>
